X: 15
T: Angels from the realms of glory
N: Joyfully
K: G
M: 4/4
L: 1/4
C: From Edward Huws Jones, 12 Days of Xmas
V: 1 name="Vln I" snm="" clef=treble
"G"  B B B (B/d/) | "D" d>c "G" B G | "G" B (B/A/) B (B/d/) | "D" d>c "G" B z |
"G" vB B B (B/d/) | "D" d>c "G" B G | "G" B (B/A/) B (B/d/) | "D" d>c "G" B z |
"G" !mf! vd2 "C" (e/d/c/B/) | "Am" c2 "D" (d/c/B/A/) | "G" B2 "C" (c/B/A/G/) | "D" A2 D2 |
"G" G "D" A "G" B "C" c | "G" B2 "D" A2 | "G" !f! d2 "C" (e/d/c/B/) | "Am" c2 "D" (d/c/B/A/) |
"G" B2 "C" (c/B/A/G/) | "D" A2 D2 | "G" G "D" A "G" B "C" c | "G" B2 "D" A2 | "G" G4 |]
V: 2 name="Vln II" snm="" clef=treble
L: 1/4
[DG,]   G G D | (F/D/E/)uF/ G G | [DG,] (G/F/) G D | ([A/F/]D/E/)u[A/F/] [BG] z |
u[DG,]  G G D | (F/D/E/)uF/ G G | [DG,] (G/F/) G D | ([A3/2F/]D/E/)u[A/F/] [BG] z |
v[DG,] [BD] !tenuto!C/(E/F/G/) | [EA,] A !tenuto!D/(F/G/A/) | ([B/D/G,/]d/c/B/) (A/G/F/E/) | (F/G/F/E/) D2 |
[DB,] [DA,] [DG,] [DA,] | ([D2B,] C) D2 | [DG,] [DB] !tenuto!C/(E/F/G/) | [EA,] A !tenuto!D/(F/G/A/) |
([B/D/G,/]d/c/B/) (A/G/F/E/) | (F/G/F/E/) D2 | [DB,] [DA,] [DG,] [DA,] | ([DB,] G) ([A2G] F/D/) | [B4D4G,4] |

